X:217
T: The Day Before Spring
O:klezmer
C: Celia Louise Shneider 1987
M: 3/4
L: 1/8
K: Bm
F2 \
| "Bm"B3 cde | fb ^af "Em"ec | "Bm"B4 c2 | "F#7"^A4 F2 \
| "Bm"B3 cde | fb ^af =ab | "E"^g3 egb | "F#7"^a4 bc' |
| "Bm(D)"d'3 c'd'e' | "A"c'3 bc'd' | "G"b2 bc' bc' | "F#7"^a>g fe dc \
| "Bm"B2 Bc de | fb ^af "Em"ec | "Bm"B4 "F#7"^A2 | "Bm"B4 :|
f2  \
|: "Bm"b2 f3 b | "E"^g2 e2 (3efg | "A"a2 e3 a | "D"f2 d2 (3def \
| "G"g2 d2 g2 | "C"e2 =c2 c2 | "F#7"^c3 F c2 |1 "Bm"d3 ef^a :|2 "Bm"B4 |]





